X: 12084
T: Ethel
R: reel
M: 4/4
K: Dminor
D D2 D F2 E2|D3 A d3 A|GF E2 D4|
D D2 D F2 F2|GF G2 A4|A3 A GF E2|
F2 E2 D4||D D2 D F2 F2|GF G2 A4|
D2 D F2 FF|GF G2 A4||
A2|dd dd cA AG|F2 G2 A3 D|
A2 A2 A A2 G|FD E2 HD2||

